public/assets/standards/sci-ai/cost-icon.svg

<svg xmlns="http://www.w3.org/2000/svg" width="48" height="48" fill="none" viewBox="0 0 48 48"><g clip-path="url(#a)"><path fill="#a5c352" d="M22.43 3.96c9.76 0 17.71 7.94 17.71 17.71S32.2 39.38 22.43 39.38 4.72 31.43 4.72 21.66s7.94-17.7 17.71-17.7m0-3.96C10.46 0 .76 9.7.76 21.66s9.7 21.66 21.66 21.66 21.66-9.7 21.66-21.66S34.39 0 22.43 0"/><path fill="#006d68" d="M31.11 23.65c0 4.8-3.89 8.69-8.69 8.69a8.69 8.69 0 0 1-8.69-8.69c0-3.74 5.27-12.33 7.6-15.95.51-.79 1.67-.79 2.18 0 2.33 3.62 7.6 12.21 7.6 15.95"/><path stroke="#a5c352" stroke-linecap="round" stroke-linejoin="round" stroke-width="1.5" d="M22.42 20.36v15.86"/><path fill="#a5c352" d="M37.01 34.65c-.8 0-1.6.31-2.22.92a3.14 3.14 0 0 0 0 4.43l7.09 7.09c.61.61 1.41.92 2.21.92s1.6-.31 2.21-.92a3.14 3.14 0 0 0 0-4.43l-7.09-7.09a3.12 3.12 0 0 0-2.21-.92z"/></g><defs><clipPath id="a"><path fill="#fff" d="M0 0h48v48H0z"/></clipPath></defs></svg>

<svg width="48" height="48" viewBox="0 0 48 48" fill="none" xmlns="http://www.w3.org/2000/svg">
<g clip-path="url(#clip0_79_6986)">
<path d="M22.43 3.96C32.19 3.96 40.14 11.9 40.14 21.67C40.14 31.44 32.2 39.38 22.43 39.38C12.66 39.38 4.72001 31.43 4.72001 21.66C4.72001 11.89 12.66 3.96 22.43 3.96ZM22.43 0C10.46 0 0.76001 9.7 0.76001 21.66C0.76001 33.62 10.46 43.32 22.42 43.32C34.38 43.32 44.08 33.62 44.08 21.66C44.08 9.7 34.39 0 22.43 0Z" fill="#A5C352"/>
<path d="M31.11 23.65C31.11 28.45 27.22 32.34 22.42 32.34C17.62 32.34 13.73 28.45 13.73 23.65C13.73 19.91 19 11.32 21.33 7.70001C21.84 6.91001 23 6.91001 23.51 7.70001C25.84 11.32 31.11 19.91 31.11 23.65Z" fill="#006D68"/>
<path d="M22.42 20.36V36.22" stroke="#A5C352" stroke-width="1.5" stroke-linecap="round" stroke-linejoin="round"/>
<path d="M37.01 34.65C36.21 34.65 35.41 34.96 34.79 35.57C33.57 36.79 33.57 38.78 34.79 40L41.88 47.09C42.49 47.7 43.29 48.01 44.09 48.01C44.89 48.01 45.69 47.7 46.3 47.09C47.52 45.87 47.52 43.88 46.3 42.66L39.21 35.57C38.6 34.96 37.8 34.65 37 34.65H37.01Z" fill="#A5C352"/>
</g>
<defs>
<clipPath id="clip0_79_6986">
<rect width="48" height="48" fill="white"/>
</clipPath>
</defs>
</svg>
